packages/bpk-svgs/src/icons/baggage/baggage--add.svg

<svg xmlns="http://www.w3.org/2000/svg" viewBox="0 0 24 24"><path d="M13 16.5a5.51 5.51 0 0 1 4-5.29V7h-1a4 4 0 1 0-8 0H7v12h6.61a5.46 5.46 0 0 1-.61-2.5zM12 5a2 2 0 0 1 2 2h-4a2 2 0 0 1 2-2zm7 6V7h1a2 2 0 0 1 2 2v3.26A5.47 5.47 0 0 0 19 11zM4 7h1v12H4a2 2 0 0 1-2-2V9a2 2 0 0 1 2-2zm14.5 6a3.5 3.5 0 1 0 3.5 3.5 3.5 3.5 0 0 0-3.5-3.5zm.5 4v2h-1v-2h-2v-1h2v-2h1v2h2v1z"/></svg>

<svg id="icon" xmlns="http://www.w3.org/2000/svg" viewBox="0 0 24 24"><title>baggage--add</title><path d="M13,16.5a5.51,5.51,0,0,1,4-5.29V7H16A4,4,0,1,0,8,7H7V19h6.61A5.46,5.46,0,0,1,13,16.5ZM12,5a2,2,0,0,1,2,2H10A2,2,0,0,1,12,5Zm7,6V7h1a2,2,0,0,1,2,2v3.26A5.47,5.47,0,0,0,19,11ZM4,7H5V19H4a2,2,0,0,1-2-2V9A2,2,0,0,1,4,7Zm14.5,6A3.5,3.5,0,1,0,22,16.5,3.5,3.5,0,0,0,18.5,13Zm.5,4v2H18V17H16V16h2V14h1v2h2v1Z"/></svg>
